X:1
T:Chloe yielded
T:anon. (c. 1767) 
%%score [ 1 2 3 ]
L:1/8
M:4/4
K:C
V:1 treble-8 nm="I"
V:2 treble-8 nm="II"
V:3 treble-8 nm="III"
V:1
|: A4 c4 | (edef e2) d2 | c3 B A4 | z2 A B c2 A2 | (A2 ^G2 A2) ^D2 | E6 E2 | A4 z2 D2 | G4 z2 C2 | %8
w: Chlo- e,|Chlo- * * * * e|yield- * ed;|on the mor- row,|sigh- * * ing|said, when|left, when|left, when|
 F4 z2 D2 | E2 ^G2 A2 D2 | E6 E2 | (A6 B2) :| %12
w: left by|Dick, when left by|Dick, "There's|no _|
V:2
|: c4 A4 | (A4 ^G4) | A4 e4 | a4 e4 | d4 c4 | (c4 B4) | z2 e2 f4 | z2 d2 e4 | z2 c2 d4 | %9
w: joy, there's|no _|joy, no|joy, no|joy, no|joy, _|no joy,|no joy,|no joy,|
 z2 B2 c2 f2 | e2 d2 c2 B2 | (c3 B) A4 :| %12
w: no joy, no|joy with- out its|sor- * row;|
V:3
|: z4 e4 | B8 | c8 | z4 A2 c2 | B4 A4 | (A4 ^GA) B2 | c4 z d c d | B4 z c B c | A4 z B A B | %9
w: there's|no|rose,|there's no|rose with-|out _ _ a|prick, with- out a|prick, with- out a|prick, with- out a|
 ^G2 f2 e2 d2 | c2 B2 A2 ^G2 | A8 :| %12
w: prick, no rose, no|rose with- out a|prick."|

